X:1
T:Title
%%score { ( 1 3 ) | ( 2 4 ) }
L:1/8
Q:1/4=108
M:4/4
K:A
V:1 treble nm="Grand Piano"
V:3 treble 
V:2 bass 
V:4 bass 
V:1
 [CE]3 [DF] [CE]C[CE][CA] | [Ec]4 [CA]4 | B3 c BAGA | B6 z2 | [Ec]3 [Fd] [Ec][DB][CA][DF] | %5
w: A.~J.~Showalter * * * * *|||||
 [CE]4 [CA]4 | G3 A BdcB |[M:3/4] [CA]6 |[M:1/4] c>d |[M:4/4] c2 B2 E2 B2 | %10
w: |||||
 [DB]2 A2- [E,CA]2 [A,CA]2 | [A,DF]2 [A,EG]2 [A,FA]2 [FB]2 |[M:3/4] c2- [Ec-]2 [Ec]2 |[M:1/4] E>E | %14
w: ||||
[M:4/4] c2 e2 d2 c2 | z2 F4 z2 | E2 d2 c2 B2 | [CA]6 z2 |] %18
w: ||||
V:2
 [A,,A,]3 [A,,A,] [A,,A,][A,,A,][A,,A,][A,,A,] | [A,,A,]4 [A,,A,]4 | %2
 [E,G,E]3 [E,A,E] [E,G,D][E,A,C][E,B,D][E,A,C] | [E,G,E]6 z2 | %4
 [A,,A,]3 [A,,A,] [A,,A,][A,,A,][A,,A,][A,,A,] | [A,,A,]4 [A,,A,]4 | %6
 [E,B,E]3 [E,CE] [E,DE][E,B,E][E,A,E][E,G,D] |[M:3/4] [A,,A,]6 |[M:1/4] z2 | %9
[M:4/4] [E,G,D]2 [E,G,D]2 [E,G,D]2 [E,G,D]2 | [A,,A,]2 [A,,E,]2 A,,2 z z/ G/ | %11
 D,2 D,2 D,2 [D,A,]2 |[M:3/4] [A,,A,]2 [A,,A,]2 [A,,A,]2 |[M:1/4] z2 | %14
[M:4/4] [A,E]2 [A,CE]2 [A,B,E]2 [A,E]2 | [D,F,D]2 [D,A,D]2 [D,A,][D,A,][D,A,D][D,A,D] | %16
 [E,A,C]2 [E,B,E]2 [E,A,E]2 [E,G,D]2 | [A,,A,]6 z2 |] %18
V:3
 x8 | x8 | x8 | x8 | x8 | x8 | x8 |[M:3/4] x6 |[M:1/4] x2 |[M:4/4] x8 | z2 C2 z4 | x8 | %12
[M:3/4] E2 z2 z2 |[M:1/4] x2 |[M:4/4] x8 | B2 z2 DDFF | x8 | x8 |] %18
V:4
 x8 | x8 | x8 | x8 | x8 | x8 | x8 |[M:3/4] x6 |[M:1/4] x2 |[M:4/4] x8 | z4 z2 A,,2 | x8 | %12
[M:3/4] x6 |[M:1/4] x2 |[M:4/4] x8 | x8 | x8 | x8 |] %18

